X:1
T:Hanter dro : Jeu
E:12
Z:Roger Ngaret (94-95)
R:hanterdro
C:Trad.
S:
A:Bretagne
Q:1/4=170
M:4/4
L:1/16
K:G
| [M:2/4]| "G"B4 B2G2 "D"A4 B4 | "G"G4 E4 | B4 B2G2 "D"A4 B4 | "G"G8 ::\
"D"E4 F2G2 A4 A4 | "G"G8 | B4 B2B2 "D"A4 G4 |\
E4 D4 | E4 F2G2 A4 A4 | "G"G8 | B4 B2B2 "D"A4 G4 |1 E8 :|2 [E16F16B16] :|
